lib/flags/s/417.svg

<svg xmlns="http://www.w3.org/2000/svg" fill="none" viewBox="0 0 16 12"><mask id="417_svg__a" width="16" height="12" x="0" y="0" mask-type="alpha" maskUnits="userSpaceOnUse"><path fill="#fff" d="M0 0H16V12H0z"/></mask><g mask="url(#417_svg__a)"><path fill="#C51918" fill-rule="evenodd" d="M0 0V12H16V0H0Z" clip-rule="evenodd"/><mask id="417_svg__b" width="16" height="12" x="0" y="0" mask-type="alpha" maskUnits="userSpaceOnUse"><path fill="#fff" fill-rule="evenodd" d="M0 0V12H16V0H0Z" clip-rule="evenodd"/></mask><g mask="url(#417_svg__b)"><path fill="#FFDC17" fill-rule="evenodd" d="M7.99101 8.9334C8.04459 8.9334 8.09785 8.932 8.15074 8.92924L8.45927 9.91312L8.53073 8.88523C8.63396 8.86657 8.73534 8.84265 8.83458 8.81377L9.36355 9.70055L9.19403 8.68367C9.28961 8.64197 9.38258 8.59546 9.47261 8.54444L10.194 9.28686L9.79228 8.33529C9.87524 8.27313 9.95482 8.20679 10.0307 8.13657L10.9059 8.69435L10.2937 7.8602C10.3599 7.78101 10.4221 7.69836 10.4799 7.61254L11.4609 7.95497L10.6718 7.28387C10.7179 7.19181 10.7592 7.09704 10.7956 6.99986L11.829 7.10859L10.9055 6.63628C10.9287 6.53648 10.9469 6.43475 10.9596 6.33138L11.9904 6.20082L10.982 5.95247C10.9815 5.848 10.9755 5.74481 10.9644 5.64316L11.9363 5.2806L10.899 5.26963C10.8744 5.16822 10.8445 5.06884 10.8097 4.97179L11.6698 4.39755L10.6588 4.62394C10.6113 4.53115 10.5589 4.44117 10.5021 4.35432L11.2051 3.59927L10.2745 4.05056C10.2068 3.97123 10.1349 3.89547 10.0593 3.82361L10.5674 2.9288L9.76782 3.57997C9.68351 3.51812 9.59581 3.46056 9.50504 3.40761L9.79093 2.42228L9.16538 3.23741C9.06896 3.19654 8.96994 3.16056 8.86863 3.12976L8.91765 2.10701L8.49879 3.04258C8.39578 3.0251 8.29097 3.01286 8.18465 3.00612L7.99461 2L7.80466 3.00566C7.69814 3.01216 7.59314 3.02418 7.48992 3.04145L7.07157 2.10701L7.12049 3.12761C7.01861 3.1583 6.91903 3.19424 6.82208 3.23511L6.19829 2.42228L6.48314 3.40402C6.39154 3.45716 6.30305 3.51499 6.21799 3.57719L5.42185 2.9288L5.92742 3.81917C5.85083 3.8916 5.7781 3.96802 5.70959 4.04809L4.7841 3.59927L5.48287 4.34978C5.42522 4.43758 5.37212 4.52859 5.32393 4.62249L4.31944 4.39755L5.17374 4.96791C5.13831 5.06621 5.10796 5.16692 5.08301 5.2697L4.05291 5.2806L5.01786 5.64057C5.0065 5.74364 5.00046 5.84829 5.00002 5.95425L3.99887 6.20082L5.02226 6.33045C5.03518 6.43528 5.05361 6.53842 5.07726 6.63957L4.16025 7.10859L5.18664 7.00059C5.22354 7.09902 5.26556 7.19499 5.31237 7.28817L4.52833 7.95497L5.50347 7.61458C5.56199 7.70132 5.62501 7.78483 5.69218 7.86478L5.08329 8.69435L5.95424 8.13929C6.03092 8.21004 6.11135 8.27685 6.19521 8.33939L5.79519 9.28686L6.51406 8.54707C6.60475 8.59825 6.6984 8.64486 6.7947 8.68659L6.62567 9.70055L7.15358 8.81555C7.2532 8.84431 7.35496 8.86807 7.45858 8.88654L7.52995 9.91312L7.83837 8.92961C7.88893 8.93213 7.93982 8.9334 7.99101 8.9334ZM10.241 5.95784C10.241 7.20025 9.22559 8.20742 7.97301 8.20742C6.72042 8.20742 5.705 7.20025 5.705 5.95784C5.705 4.71544 6.72042 3.70827 7.97301 3.70827C9.22559 3.70827 10.241 4.71544 10.241 5.95784ZM7.9877 7.70904C8.93465 7.70904 9.70231 6.94138 9.70231 5.99442C9.70231 5.75227 9.65211 5.52183 9.56155 5.31297C8.95179 5.35632 8.48667 5.58221 8.1777 5.81518L7.93229 6.00023L7.70312 5.80187C7.48357 5.61183 7.05969 5.39784 6.40887 5.32455C6.32145 5.53034 6.27308 5.75673 6.27308 5.99442C6.27308 6.94138 7.04074 7.70904 7.9877 7.70904ZM6.75093 4.80686C7.06294 4.482 7.5017 4.27981 7.9877 4.27981C8.46611 4.27981 8.89877 4.47575 9.20978 4.79175C8.72036 4.84852 8.30534 4.97122 7.96836 5.16211C7.66792 4.98973 7.26178 4.87321 6.75093 4.80686Z" clip-rule="evenodd"/></g></g></svg>

<svg xmlns="http://www.w3.org/2000/svg" fill="none" viewBox="0 0 16 12"><mask id="417_svg__a" width="16" height="12" x="0" y="0" maskUnits="userSpaceOnUse"><path fill="#fff" d="M0 0h16v12H0z"/></mask><g mask="url(#417_svg__a)"><path fill="#C51918" fill-rule="evenodd" d="M0 0v12h16V0H0z" clip-rule="evenodd"/><mask id="417_svg__b" width="16" height="12" x="0" y="0" maskUnits="userSpaceOnUse"><path fill="#fff" fill-rule="evenodd" d="M0 0v12h16V0H0z" clip-rule="evenodd"/></mask><g mask="url(#417_svg__b)"><path fill="#FFDC17" fill-rule="evenodd" d="M7.991 8.933c.054 0 .107-.001.16-.004l.308.984.072-1.028c.103-.018.204-.042.304-.071l.529.887-.17-1.017a2.99 2.99 0 00.279-.14l.721.743-.402-.952a2.99 2.99 0 00.239-.198l.875.557-.612-.834a2.95 2.95 0 00.186-.247l.98.342-.788-.671c.046-.092.087-.187.124-.284l1.033.109-.923-.473c.023-.1.04-.201.054-.305l1.03-.13-1.008-.249a2.98 2.98 0 00-.018-.309l.972-.362L10.9 5.27a2.926 2.926 0 00-.09-.298l.86-.574-1.01.226a2.965 2.965 0 00-.157-.27l.703-.755-.93.452a3.002 3.002 0 00-.216-.227l.508-.895-.8.651a2.999 2.999 0 00-.262-.172l.286-.986-.626.815a2.985 2.985 0 00-.296-.107l.049-1.023-.42.936a3.019 3.019 0 00-.313-.037L7.995 2l-.19 1.006a3.022 3.022 0 00-.315.035l-.418-.934.049 1.02a3.036 3.036 0 00-.299.108l-.624-.813.285.982c-.091.053-.18.111-.265.173l-.796-.648.505.89a2.95 2.95 0 00-.217.23l-.926-.45.699.75a3.4 3.4 0 00-.159.273l-1.005-.224.855.57a2.925 2.925 0 00-.091.302l-1.03.01.965.36A2.975 2.975 0 005 5.955l-1.001.247 1.023.13c.013.104.032.207.055.309l-.917.469L5.187 7c.037.098.079.194.125.287l-.784.667.976-.34c.058.086.121.17.188.25l-.609.83.871-.556c.077.071.157.138.241.2l-.4.948.72-.74c.09.051.183.098.28.14L6.625 9.7l.529-.885c.1.028.201.052.305.07l.071 1.027.308-.983.153.003zm2.25-2.975a2.259 2.259 0 01-2.268 2.25 2.259 2.259 0 01-2.268-2.25 2.259 2.259 0 012.268-2.25 2.259 2.259 0 012.268 2.25zM7.988 7.709a1.715 1.715 0 001.574-2.396 2.6 2.6 0 00-1.384.502L7.932 6l-.229-.198c-.22-.19-.643-.404-1.294-.477a1.715 1.715 0 001.579 2.384zM6.75 4.807a1.71 1.71 0 011.237-.527c.478 0 .91.196 1.222.512-.49.057-.905.18-1.242.37-.3-.172-.706-.289-1.217-.355z" clip-rule="evenodd"/></g></g></svg>
